!!!!SEGMENT: pl-wtm--r-1420--003_stefani-jozef--valc.krn
!!!cenid: 18xx:2426
!!!COM: Stefani, Józef
!!!COM-rismid: pe30024097
!!!CDT: 1800/04/16-1876/03/19
!!!CNT: Polish
!!!OTL: Valc
!!!PDT:
!!!AGN: Secular; Waltz
!!!SMS-siglum: PL-Wtm
!!!SMS-shelfmark: R 1420
!!!SMS-shelfwork: 003 W
!!!SMS-variant:
!!!SMS-altvar:
!!!NIFC-rismid: 1001116020
!!!URL-scan: http://repozytorium.nifc.pl/skany/pl-wtm-nut--r1420
!!!ONB-nifc: UWAGA: w zbiorze 1. Mazur, 2. Valc (od 3 systemu), 3. Valc (od 6 systemu), 4. Mazur
**kern	**kern
*part2	*part1
*staff2	*staff1
*	*I"fortepian
*clefF4	*clefG2
*k[f#c#]	*k[f#c#]
*D:	*D:
*M3/8	*M3/8
=1	=1
*>A	*>A
8d\L 8A\ 8F#\ 8D\	8ddd\L 8aa\ 8ff#\ 8dd\
16d\L 16A\ 16F#\ 16D\	16ddd\L 16aa\ 16ff#\ 16dd\
16d\J 16A\ 16F#\ 16D\	16ddd\J 16aa\ 16ff#\ 16dd\
8d\J 8A\ 8F#\ 8D\	8ddd\J 8aa\ 8ff#\ 8dd\
=2	=2
4d\ 4A\ 4F#\ 4D\	4ddd\ 4aa\ 4ff#\ 4dd\
16D\LL	16dd\LL
16E\JJ	16ee\JJ
=3	=3
4F#\	4ff#\
16F#\LL	16ff#\LL
16G\JJ	16gg\JJ
=4	=4
4A\	4aa\
8A\	8aa\
=5	=5
8C#\L	4bb\ 4b\
8A\ 8G\ 8E\	.
8A\J 8G\ 8E\	8aa\ 8a\
=6	=6
*rep	*
8C#\L	8ee\L 8e\
8A\ 8G\ 8E\	8ff#\ 8f#\
8A\J 8G\ 8E\	8gg\J 8g\
*Xrep	*
=7	=7
8D\L	4bb\ 4b\
8A\ 8F#\	.
8A\J 8F#\	8aa\ 8a\
=8	=8
*rep	*
8D\L	8dd\L 8d\
8A\ 8F#\	8ee\ 8e\
8A\J 8F#\	8ff#\J 8f#\
*Xrep	*
=9	=9
8AA\L	4ff#\ 4f#\
8A\ 8E\ 8C#\	.
8A\J 8E\ 8C#\	8ee\ 8e\
=10	=10
*rep	*
8AA\L	8a\L
8A\ 8E\ 8C#\	8b\
8A\J 8E\ 8C#\	8cc#\J
*Xrep	*
=11	=11
8D\L	8dd\L
8A\ 8F#\	8ff#\
8A\J 8F#\	8aa\J
=12	=12
*rep	*
8D\L	8ddd\L 8dd\
8A\ 8F#\	8ccc#\ 8cc#\
8A\J 8F#\	8bb\J 8b\
*Xrep	*
=13	=13
8C#\L	4bb\ 4b\
8A\ 8G\ 8E\	.
8A\J 8G\ 8E\	8aa\ 8a\
=14	=14
*rep	*
8C#\L	8ee\L 8e\
8A\ 8G\ 8E\	8ff#\ 8f#\
8A\J 8G\ 8E\	8gg\J 8g\
*Xrep	*
=15	=15
8D\L	4bb\ 4b\
8A\ 8F#\	.
8A\J 8F#\	8aa\ 8a\
=16	=16
*rep	*
8D\L	8dd\L 8d\
8A\ 8F#\	8ee\ 8e\
8A\J 8F#\	8ff#\J 8f#\
*Xrep	*
=17	=17
8AA\L	4ff#\ 4f#\
8A\ 8E\ 8C#\	.
8A\J 8E\ 8C#\	8ee\ 8e\
=18	=18
*rep	*
8AA\L	8a\L
8A\ 8E\ 8C#\	8b\
8A\J 8E\ 8C#\	8cc#\J
*Xrep	*
=19	=19
8D\L	8dd\L
8A\ 8F#\	8ff#\
8A\J 8F#\	8aa\J
=20	=20
4d\ 4A\ 4F#\ 4D\	4ddd\
8r	8r
=21:|!|:	=21:|!|:
*>B	*>B
8E\L	8ee\L 8b\ 8g#X\
16e\L 16B\ 16G#X\	16ee\L 16b\ 16g#\
16e\J 16B\ 16G#\	16ee\J 16b\ 16g#\
8e\J 8B\ 8G#\	8ee\J 8b\ 8g#\
=22	=22
8E\L	8ee\L
8e\ 8B\ 8G#X\	8dd#X\
8e\J 8B\ 8G#\	8ee\J
!!LO:PB:g=original
=23	=23
8A\L	4ff#\
8e\ 8c#\	.
8e\J 8c#\	8ee\
=24	=24
*rep	*
8A\L	8ee\L
8e\ 8c#\	8dd\
8e\J 8c#\	8cc#\J
*Xrep	*
=25	=25
8E\L	4b\
8d\ 8B\ 8G#X\	.
8d\J 8B\ 8G#\	8b\
=26	=26
*rep	*
8E\L	8b\L
8d\ 8B\ 8G#X\	8a#X\
8d\J 8B\ 8G#\	8b\J
*Xrep	*
=27	=27
8A\	16a\LL
.	16b\
4e\ 4c#\ 4A\	16cc#\
.	16dd\J
.	8ee\J
=28	=28
*rep	*
8A\	16aa\LL
.	16bb\
4e\ 4c#\ 4A\	16ccc#\
.	16ddd\J
.	8eee\J
*Xrep	*
=29	=29
8E\L	8ee\L 8b\ 8g#X\
16e\L 16B\ 16G#X\	16ee\L 16b\ 16g#\
16e\J 16B\ 16G#\	16ee\J 16b\ 16g#\
8e\J 8B\ 8G#\	8ee\J 8b\ 8g#\
=30	=30
8E\L	8ee\L
8e\ 8B\ 8G#X\	8dd#X\
8e\J 8B\ 8G#\	8ee\J
=31	=31
8A\L	4ff#\ 4a\
8e\ 8c#\	.
8e\J 8c#\	8ee\
=32	=32
*rep	*
8A\L	8ee\L
8e\ 8c#\	8dd\
8e\J 8c#\	8cc#\J
*Xrep	*
=33	=33
8E\L	4b\
8d\ 8B\ 8G#X\	.
8d\J 8B\ 8G#\	8b\
=34	=34
*rep	*
8E\L	8b\L
8d\ 8B\ 8G#X\	8cc#\
8d\J 8B\ 8G#\	8b\J
*Xrep	*
=35	=35
8A\L	8a/L
8e\ 8c#\	16a/L
.	16a/J
8e\J 8c#\	8a/J
=36	=36
4e\ 4c#\ 4A\	4a/
8r	8r
=37:|!|:	=37:|!|:
*>C	*>C
8D\L	4ff#\ 4f#\
8A\ 8F#\	.
8A\J 8F#\	8gg\ 8g\
=38	=38
*rep	*
8D\L	4gg#X\ 4g#X\
8A\ 8F#\	.
8A\J 8F#\	8aa\ 8a\
*Xrep	*
=39	=39
8BB\L	4aa#X\ 4a#X\
8G\ 8E\	.
8G\J 8E\	8bb\ 8b\
=40	=40
*rep	*
8BB\L	4ee\ 4e\
8G\ 8E\	.
8G\J 8E\	8ff#\ 8f#\
*Xrep	*
=41	=41
8AA\L	8gg\L 8g\
8G\ 8E\ 8C#\	8cc#\
8G\J 8E\ 8C#\	8ee\J
=42	=42
*rep	*
8AA\L	8bb\L
8G\ 8E\ 8C#\	8aa\
8G\J 8E\ 8C#\	8gg\J
*Xrep	*
=43	=43
8D\L	4ee\
8A\ 8F#\	.
8A\J 8F#\	8ee#X\
=44	=44
*rep	*
8D\L	4ff#\
8A\ 8F#\	.
8A\J 8F#\	8r
*Xrep	*
!!LO:LB:g=original
=45	=45
8D\L	4ff#\ 4f#\
8A\ 8F#\	.
8A\J 8F#\	8gg\ 8g\
=46	=46
*rep	*
8D\L	8aa\L 8a\
8A\ 8F#\	8ddd\ 8dd\
8A\J 8F#\	8ccc#\J 8cc#\
*Xrep	*
=47	=47
8BB\L	4ccc#\ 4cc#\
8G\ 8E\	.
8G\J 8E\	8bb\ 8b\
=48	=48
*rep	*
8BB\L	4ee\ 4e\
8G\ 8E\	.
8G\J 8E\	8ff#\ 8f#\
*Xrep	*
=49	=49
8AA\L	8gg\L 8g\
8G\ 8E\ 8C#\	8a\
8G\J 8E\ 8C#\	8g#X\J
=50	=50
*rep	*
8AA\L	8a\L
8G\ 8E\ 8C#\	8b\
8G\J 8E\ 8C#\	8cc#\J
*Xrep	*
=51	=51
*rep	*
8AA\L	4.ee\ 4.cc#\ 4.g\
8G\ 8E\ 8C#\	.
8G\J 8E\ 8C#\	.
*Xrep	*
=52	=52
4.A\ 4.F#\ 4.D\	4.dd/ 4.a/ 4.f#/
=53:|!|:	=53:|!|:
*>D	*>D
4d\ 4B\ 4G#X\ 4E\	4ff#\ 4dd\ 4b\ 4g#X\
8d\ 8B\ 8G#X\ 8E\	8ee\
=54	=54
4d\ 4B\ 4G#X\ 4E\	4ff#\ 4dd\ 4b\ 4g#X\
8d\ 8B\ 8G#X\ 8E\	8ee\
=55	=55
4d\ 4B\ 4G#X\ 4E\	8ff#\L 8dd\ 8b\ 8g#X\
.	8ee\
8d\ 8B\ 8G#\ 8E\	8g#\J
=56	=56
4A\ 4AA\	8a\
.	4aa\ 4cc#\ 4a\
8A\ 8AA\	.
=57	=57
4d\ 4B\ 4G#X\ 4E\	4ff#\ 4dd\ 4b\ 4g#X\
8d\ 8B\ 8G#\ 8E\	8ee\
=58	=58
*rep	*
4d\ 4B\ 4G#X\ 4E\	4ff#\ 4dd\ 4b\ 4g#X\
8d\ 8B\ 8G#\ 8E\	8ee\
*Xrep	*
=59	=59
*rep	*
4d\ 4B\ 4G#X\ 4E\	8ff#\L 8dd\ 8b\ 8g#X\
.	8ee\
8d\ 8B\ 8G#\ 8E\	8g#\J
*Xrep	*
=60	=60
4A/ 4AA/	4a/
8r	8r
=61	=61
!LO:TX:a:t=2	!LO:TX:a:t=2
4.r	4.r
=62	=62
4.r	4.r
=63	=63
8D\L	4ff#\ 4f#\
8A\ 8F#\	.
8A\J 8F#\	8gg\ 8g\
=64	=64
*rep	*
8D\L	8aa\L 8a\
8A\ 8F#\	8ddd\ 8dd\
8A\J 8F#\	8ccc#\J 8cc#\
*Xrep	*
=65	=65
8BB\L	4ccc#\ 4cc#\
8G\ 8E\	.
8G\J 8E\	8bb\ 8b\
=66	=66
*rep	*
8BB\L	4ee/ 4e/
8G\ 8E\	.
8G\J 8E\	8ff#/ 8f#/
*Xrep	*
=67	=67
8AA\L	8gg/L 8g/
8G\ 8E\ 8C#\	8a/
8G\J 8E\ 8C#\	8g#X/J
!!LO:LB:g=original
=68	=68
8AA\L	8a/L
8G\ 8E\ 8C#\	8b/
8G\J 8E\ 8C#\	8cc#/J
=69	=69
*rep	*
8AA\L	4.ee\ 4.cc#\ 4.g\
8G\ 8E\ 8C#\	.
8G\J 8E\ 8C#\	.
*Xrep	*
=70	=70
4.A\ 4.F#\ 4.D\	4.dd/ 4.a/ 4.f#/
=71:|!	=71:|!
*>E	*>E
*k[f#]	*k[f#]
*tremolo	*
16B\LL 16G\	16dd\LL
16d\	16ee\
16B\ 16G\	16dd\
16d\	16cc#X\J
16B\ 16G\	8dd\J
16d\JJ	.
=72	=72
*rep	*
16B\LL 16G\	4bb\
16d\	.
16B\ 16G\	.
16d\	.
16B\ 16G\	8gg\
16d\JJ	.
*Xrep	*
=73	=73
*rep	*
16B\LL 16G\	16gg\LL
16d\	16aa\
16B\ 16G\	16gg\
16d\	16ff#\J
16B\ 16G\	8gg\J
16d\JJ	.
*Xrep	*
=74	=74
*rep	*
16B\LL 16G\	4eee\
16d\	.
16B\ 16G\	.
16d\	.
16B\ 16G\	8ddd\
16d\JJ	.
*Xrep	*
=75	=75
16c\LL 16A\	4ccc\
16d\	.
16c\ 16A\	.
16d\	.
16c\ 16A\	16aa\LL
16d\JJ	16bb\JJ
=76	=76
*rep	*
16c\LL 16A\	4ccc\
16d\	.
16c\ 16A\	.
16d\	.
16c\ 16A\	16ff#\LL
16d\JJ	16gg\JJ
*Xrep	*
=77	=77
*rep	*
16c\LL 16A\	4aa\
16d\	.
16c\ 16A\	.
16d\	.
!	!LO:TX:t=P:problem:nad obiegnikiem 2 krzyżyki
16c\ 16A\	8ddsSSs\
16d\JJ	.
*Xrep	*
=78	=78
*rep	*
16c\LL 16A\	4ee\
16d\	.
16c\ 16A\	.
16d\	.
16c\ 16A\	8dd\
16d\JJ	.
*Xrep	*
=79	=79
16B\LL 16G\	16dd\LL
16d\	16ee\
16B\ 16G\	16dd\
16d\	16cc#X\J
16B\ 16G\	8dd\J
16d\JJ	.
=80	=80
*rep	*
16B\LL 16G\	4bb\
16d\	.
16B\ 16G\	.
16d\	.
16B\ 16G\	8gg\
16d\JJ	.
*Xrep	*
=81	=81
16c\LL 16G\	16ee\LL
16e\	16ff#\
16c\ 16G\	16ee\
16e\	16dd#X\J
16c\ 16G\	8ee\J
16e\JJ	.
=82	=82
*rep	*
16c\LL 16G\	4gg\
16e\	.
16c\ 16G\	.
16e\	.
16c\ 16G\	8ee\
16e\JJ	.
*Xrep	*
=83	=83
16B\LL 16G\	8dd\L
16d\	.
16B\ 16G\	8gg\
16d\	.
16B\ 16G\	8bb\J
16d\JJ	.
=84	=84
16c\LL 16A\	8eee\L
16d\	.
16c\ 16A\	8ddd\
16d\	.
16c\ 16A\	8ff#\J
16d\JJ	.
=85	=85
*rep	*
16c\LL 16A\	4aa\
16d\	.
16c\ 16A\	.
16d\	.
16c\ 16A\	16bb\LL
16d\JJ	16aa\JJ
*Xrep	*
=86	=86
4d\ 4B\ 4G\	4gg\
!	!LO:TX:b:t=Fine
!	!LO:TX:t=P:problem:fermata na kresce taktowej
8r	8r
==	==
*-	*-
!!!system-decoration: {(s1,s2)}
!!!EED: Andrzej Borzym
!!!EST: 2021-06-25
!!!ENC: Krzysztof Stępień
!!!END: 2021-06-18
